X:1
T:[ID 2-53a]
C:Urheber unbekannt
C:Datum in der hier transkribierten schriftlichen Quelle: 1767
L:1/16
M:2/4
I:linebreak $
K:D
V:1 treble 
V:1
 d2d2 cdec | d2d2 cdec | d2d2 cdec | d8 | f2f2 efge | f2f2 efge | f2f2 efge | f8 :: a2a2f2f2 |$ %9
 d2dc B4 | g2gfe2e2 | c2cB A4 |"^1)" d2d2 cdec |"^1)" d2d2 cdec |"^1)" d2d2 cdec | d8 :| %16
